X: 1
T: Cur Dhan Chiste Mhor Mi
M: 4/4
L: 1/8
R: reel
K: Amix
|:e|~A3B c2ca|c2cB cef2|~A3B c2af|ecBc ~A3:|
|:f|eAec e2 Aa|eAec ~B3f|eAec efaf|ecBc ~A3:|
